X: 1038
T:Polska i Gm från Haverö
O:Haverö, Medelpad
R:Polska
Z:Från [[http://homepage.calypso.net/~ci-18034/page4.html#medelpad2|Lennart Sohlmans hemsida]]
M:3/4
L:1/16
Q:1/4=110
K:Gm
D2|:G3A BABc d4|d3g g2ag ^f2d2|d2=e^f g2B2 A2^F2|\
G3A B2dB AcA^F|G3A BABc d4|d3g g2ag ^f2d2|\
d2=e^f g2B2 A2GB|[1D2^FA G6 D2:|[2D2^FA G8|:\
d3g g2f2 d2c2|f3e dedc d2B2|B2g2 g2f2 d2c2|\
f3e dedc d2B2|AcA^F G3A B2d2|cAce d2d2 A4|\
d3g g2f2 d2c2|f3e dedc d2B2|B2g2 g2f2 d2c2|\
f3e dedc d2B2|AcA^F G3A B2dB|AcA^F G8:|\
(:musicend:)

(:music:)
